X:12211
T:O'The Days When I Was Young. JC.209
M:C
L:1/8
Q:120
S:John Clare,Poet,Helpstone (1793-1864)
R:Air
O:England179
A:Northamptonshire
N:
N:No TS given: 2/4 adde
Z:P Headford
K:D
d"Sy"B|AFDFE2dB|AFDFA2dB|AFDFB2"Qu's"e/f/g/e/|fdAcd2"Soy"dB|!
AFDFE2dB|AFDFA2dB|AFDFB2 eG|Fdecd2"Sy"f/f/g/e/|!
fdAcd2"So"dd|ccBBA2Ac|edcBA2dd|ccBBA2AB/c/|!
dFEDA4|A6dB|AFDFE2dB|AFDFA2dB|!
AFDFB2eG|Fdecd2e/f/g/e/|fdAcd2|]
W:Song text exists. See Deacon.
